X:2847
T:B\aansull
T:Lullaby
C:anon.
O:Norway
A:\Osterdalen
R:Lullaby
Z:Transcribed by Frank Nordberg - http://www.musicaviva.com
F:http://abc.musicaviva.com/tunes/norway/baansull02/baansull02-1.abc
M:2/4
L:1/8
Q:1/4=60
K:Bb
"Bb"(3:2:2dB2"F"(3:2:2cA2|"Gm"d(c/B/)"F"c2|"Eb"(B/A/)G "F7"F(G/A/)|"Bb"B2B2:|
w:Sov no, sov no, ves-le_ barn, sov_ no ves-le_ bar-net.
|:"Cm"C(D/E/) "F7"C(D/E/)|"Dm7"F2"G7"F2::"Eb"(dc) "F7"(B/A/)(G/A/)|"Bb"B2B2:|
w:Sov no,_ sov no_ bar-net. Sov_ ves--le_ bar-net.
W:
W:Sov no, sov no, vesle barn,
W:sov no vesle barnet.
W:Sov no, sov no barnet.
W:Sov vesle barnet.
W:
W:
W:  From Musica Viva - http://www.musicaviva.com
W:  the Internet center for free sheet music downloads.

